modules/themify-icons/icons/write.svg

<?xml version="1.0" encoding="utf-8"?>
<!-- Generated by IcoMoon.io -->
<!DOCTYPE svg PUBLIC "-//W3C//DTD SVG 1.1//EN" "http://www.w3.org/Graphics/SVG/1.1/DTD/svg11.dtd">
<svg version="1.1" xmlns="http://www.w3.org/2000/svg" xmlns:xlink="http://www.w3.org/1999/xlink" width="17" height="17" viewBox="0 0 17 17">
<g>
</g>
	<path d="M11.667 0h-8.651v1.984h-0.516c-0.827 0-1.5 0.673-1.5 1.5v8.588l2.521 4.956 2.464-4.959v-8.585c0-0.827-0.673-1.5-1.5-1.5h-0.469v-0.984h6.984v5h5v10h-11.5v1h12.5v-11.692l-5.333-5.308zM3.908 14.002h-0.804l-1.104-2.17v-5.848h1v6.027h1v-6.027h0.984v5.851l-1.076 2.167zM4.984 3.484v1.5h-2.984v-1.5c0-0.275 0.225-0.5 0.5-0.5h1.984c0.276 0 0.5 0.225 0.5 0.5zM12 1.742l3.273 3.258h-3.273v-3.258z" fill="#000000" />
</svg>

<svg xmlns="http://www.w3.org/2000/svg" width="17" height="17" viewBox="0 0 17 17"><path d="M11.667 0H3.016v1.984H2.5c-.827 0-1.5.673-1.5 1.5v8.588l2.521 4.956 2.464-4.959V3.484c0-.827-.673-1.5-1.5-1.5h-.469V1H11v5h5v10H4.5v1H17V5.308L11.667 0zM3.908 14.002h-.804L2 11.832V5.984h1v6.027h1V5.984h.984v5.851l-1.076 2.167zM4.984 3.484v1.5H2v-1.5c0-.275.225-.5.5-.5h1.984a.5.5 0 0 1 .5.5zM12 1.742L15.273 5H12V1.742z"/></svg>
